!!!!SEGMENT: pl-wn--mus-2041-9_zelenski-wladyslaw--preludyium.krn
!!!cenid: 18xx:3649
!!!COM: Żeleński, Władysław
!!!COM-rismID: pe41024455
!!!CDT: 1837/07/06-1921/01/23
!!!CNT: Polish
!!!OTL: Preludyium
!!!PDT:
!!!AGN:
!!!SMS-siglum: PL-Wn
!!!SMS-shelfmark: Mus.2041/9
!!!SMS-shelfwork: W
!!!SMS-variant:
!!!SMS-altvar:
!!!NIFC-rismSourceID:
!!!NIFC-rismChildID:
!!!NIFC-islandoraID:
!!!URL-pdf-islandora:
!!!URL-scan: https://polona.pl/item/preludyium-widze-ja-piesn,NjU5MjI0Nzc/2 @EN{Scan on Polona} @PL{Skany w portalu Polona}
!!!ONB-nifc:
!!!OMD: Andante misterioso.
!!!AIN: 1 piano 1 vox
!!!key: D
**kern	**kern	**dynam	**kern	**text	**dynam
*part2	*part2	*part2	*part1	*part1	*part1
*staff3	*staff2	*	*staff1	*staff1	*
*I"Fortepian	*I"Fortepian	*	*I"Spiew.	*	*
*Ipiano	*Ipiano	*	*Ivox	*	*
*ICklav	*ICklav	*	*ICvox	*	*
*clefF4	*clefG2	*	*clefG2	*	*
*k[f#c#]	*k[f#c#]	*	*k[f#c#]	*	*
*D:	*D:	*	*D:	*	*
*M3/4	*M3/4	*	*M3/4	*	*
=1	=1	=1	=1	=1	=1
*^	*	*	*	*	*
*xywh-#2:106,1264,5847,1065	*xywh-#2:106,1264,5847,1065	*xywh-#2:106,1264,5847,1065	*	*xywh-#2:89,161,6204,1106	*	*
!LO:N:vis=2	!	!	!	!	!	!
8DD/	[<2.DD\	4r	pp	2.r	.	.
4AA/	.	.	.	.	.	.
.	.	(<[<2A^/	.	.	.	.
4AA/	.	.	.	.	.	.
[>8AA/	.	.	.	.	.	.
=2	=2	=2	=2	=2	=2	=2
!	!	!	!LO:HP:b	!	!	!
8AA/]	2.DD\_<	8A/]	<	2.r	.	.
4AA/	.	4B/)	.	.	.	.
4AA/	.	(<8F#/L	.	.	.	.
.	.	8A/	.	.	.	.
[>8AA/	.	8c#/J	[[	.	.	.
=3	=3	=3	=3	=3	=3	=3
8AA/]	4.DD\]	4B/	.	2.r	.	.
4AA/	.	.	.	.	.	.
!	!	!	!LO:HP:b	!	!	!
.	.	8A/)	>	.	.	.
8r	4.ryy	4d/ 4f#	.	.	.	.
4r	.	.	.	.	.	.
.	.	[8d/ [>8f#	.	.	.	.
*v	*v	*	*	*	*	*
=4	=4	=4	=4	=4	=4
2.ryy	8d/] 8f#]	]	4r	.	.
.	4d/ 4f#	.	.	.	.
!	!	!	!	!	!LO:DY:a
.	.	.	4.f#/	Wi-	p
.	4d/ 4f#	.	.	.	.
.	[8d/ [8f#	.	8f#/	-dzę	.
!!LO:LB:g=original
=5	=5	=5	=5	=5	=5
*xywh-#2:463,2923,5415,1099	*xywh-#2:463,2923,5415,1099	*	*xywh-#2:514,2373,5328,667	*	*
4r	8d/] 8f#]	.	[2a\	ją	.
.	4d/ 4f#	.	.	.	.
8r	.	.	.	.	.
!	!	!LO:HP:b	!	!	!
(>8F#\L	4d/ 4f#	<	.	.	.
8A\	.	.	8a\]	.	.
8c#\J	[8d/ [8f#	[[	8r	.	.
=6	=6	=6	=6	=6	=6
!	!	!LO:HP:b	!	!	!
4B\	8d/] 8f#]	>	2.r	.	.
.	4d/ 4f#	]	.	.	.
4A\)	.	.	.	.	.
.	4d/ 4f#	.	.	.	.
4r	.	.	.	.	.
.	[8d/ [8f#	.	.	.	.
=7	=7	=7	=7	=7	=7
2.r	8d/] 8f#]	.	4r	.	.
.	4d/ 4f#	.	.	.	.
.	.	.	4.b\	Wi-	.
.	4d/ 4f#	.	.	.	.
.	[8d/ [8f#	.	8b\	-dzę	.
=8	=8	=8	=8	=8	=8
4r	8d/] 8f#]	.	[2f#/	ją,	.
.	4d/ 4f#	.	.	.	.
8r	.	.	.	.	.
(>8F#\L	4d/ 4f#	.	.	.	.
8A\	.	.	8f#/]	.	.
8c#\J	[8d/ [8f#	.	8r	.	.
=9	=9	=9	=9	=9	=9
*	*^	*	*	*	*
*	*	*xywh-#2:463,2923,5415,1099	*	*	*	*
4B\	(>4dd/	8d\] 8f#]	.	4dd\	i-	.
.	.	4d\ 4f#	.	.	.	.
4A\	4cc#/	.	.	4cc#\	-dzie	.
.	.	4d\ 4f#	.	.	.	.
4G#X\	4b/	.	.	4b\	z_sło-	.
.	.	8d\ 8f#	.	.	.	.
=10	=10	=10	=10	=10	=10	=10
2A\)	4cc#/	8cc#\	.	4cc#\	-necz-	.
.	.	4c#\ 4f#	.	.	.	.
.	4f#/	.	.	4f#/	-ną	.
.	.	4c#\	.	.	.	.
(4D\	4g#X/)	.	.	4g#X/	po-	.
.	.	8B#X\ 8f#	.	.	.	.
!!LO:LB:g=original
=11	=11	=11	=11	=11	=11	=11
*xywh-#2:470,4668,5422,1099	*xywh-#2:470,4668,5422,1099	*xywh-#2:470,4668,5422,1099	*	*xywh-#2:588,4006,5240,748	*	*
(>2.C#/)	4a#X/	8a#\L	.	4a#X\	-go-	.
.	.	8c#\ 8f#	.	.	.	.
.	4f#/	8f#\	.	4f#\	-dą	.
.	.	8A#X\ 8c#	.	.	.	.
.	4c#/	8c#\	.	4c#/	W_a-	.
.	.	8F#\J 8A#	.	.	.	.
=12	=12	=12	=12	=12	=12	=12
!	!	!LO:TX:t=P:vis=2\ z chorągiewką:problem	!	!	!	!
!	!	!LO:N:vis=2	!LO:HP:b	!	!	!LO:HP:a
4BB/	2d#X/	8d#X\	<	2d#X/	-niel-	<
.	.	4F#\ 4B	.	.	.	.
4AA#X/	.	.	.	.	.	.
.	.	8F#\ 8c#	.	.	.	.
4GG#X/	[>4e#X/	8e#\L	.	4e#X/	-skiej	.
.	.	[<8B\J [<8c#	.	.	.	.
=13	=13	=13	=13	=13	=13	=13
[4FF#/)	(>4e#/]	8B\L] 8c#]	[	4a#X/	twa-	[
.	.	(8B\J [8c#	.	.	.	.
!	!	!	!	!	!	!LO:HP:a
8FF#/]	8A#X/) 8c#] 8f#	2r)yy	.	[2f#/	-rzy:	>
!	!	!	!LO:HP:b	!	!	!
8r	4f#/ 4a#X	.	>	.	.	.
4r	.	.	.	.	.	.
.	[8f#/ [8a#	.	.	.	.	.
*	*v	*v	*	*	*	*
=14	=14	=14	=14	=14	=14
2.r	8f#/] 8a#]	.	8f#/]	.	]
.	4f#/ 4a#X 4cc#	]	8r	.	.
.	.	.	4r	.	.
.	4f#/ 4a# 4cc#	.	.	.	.
.	.	.	4r	.	.
.	(>8f#/ 8a# 8cc#	.	.	.	.
=15	=15	=15	=15	=15	=15
2.r	8fn\L) 8an 8dd	.	4r	.	.
.	8f\J 8a 8dd	.	.	.	.
.	8f\L 8a 8dd	.	4an/	I-	.
.	8f\ 8a 8dd	.	.	.	.
.	8f\ 8a 8dd	.	8a/	-dzie	.
.	8f\J 8a 8dd	.	8a/	wie-	.
!!LO:LB:g=original
=16	=16	=16	=16	=16	=16
*xywh-#2:463,6383,5382,1092	*xywh-#2:463,6383,5382,1092	*	*xywh-#2:561,5705,5348,755	*	*
4r	8fn/L 8a 8dd	.	4dd\	-czo-	.
.	8f/ 8a 8dd	.	.	.	.
8r	8f/ 8a 8dd	.	[2a\	-rem	.
(>8B\L	8f/ 8a 8dd	.	.	.	.
8A\	8f/ 8a 8dd	.	.	.	.
8Fn\J	8f/J 8a 8dd	.	.	.	.
=17	=17	=17	=17	=17	=17
[>2cn\)	8fn/L 8a 8ccn	.	2a\]	.	.
.	8f/ 8a 8cc	.	.	.	.
.	8f/ 8a 8cc	.	.	.	.
.	8f/ 8a 8cc	.	.	.	.
8c\]	8f/ 8a 8cc	.	[4a\	gdzieś	.
8r	8f/J 8a 8cc	.	.	.	.
=18	=18	=18	=18	=18	=18
2.r	8fn/L 8a 8ccn	.	4.a\]	.	.
.	8f/ 8a 8cc	.	.	.	.
.	8f/ 8a 8cc	.	.	.	.
.	8f/ 8a 8cc	.	8a/	nad	.
.	8f/ 8a 8cc	.	8a/	sen-	.
.	8f/J 8a 8cc	.	8a/	-ną	.
=19	=19	=19	=19	=19	=19
4r	8e/L 8g 8ccn	.	4ccn\	wo-	.
.	8e/J 8g 8cc	.	.	.	.
8r	8e-X/L 8g 8cc	.	[2g/	-dą	.
(>8A\L	8e-/ 8g 8cc	.	.	.	.
8G\	8e-/ 8g 8cc	.	.	.	.
8E-X\J	8e-/J 8g 8cc	.	.	.	.
=20	=20	=20	=20	=20	=20
[>4B-X\)	8e-X/L 8g 8b-X	.	8g/]	.	.
.	8e-/ 8g 8b-	.	8r	.	.
8B-\]	8e-/ 8g 8b-	.	4r	.	.
8r	8e-/ 8g 8b-	.	.	.	.
!	!	!	!LO:TX:a:t=dolce	!	!
4r	8e-/ 8g 8b-	.	4ee-X\	I	.
.	8e-/J 8g 8b-	.	.	.	.
!!LO:PB:g=original
=21	=21	=21	=21	=21	=21
*xywh-#3:402,1231,5449,1075	*xywh-#3:402,1231,5449,1075	*	*xywh-#3:448,551,5420,721	*	*
4r	8fn/L 8a-X 8b-X	.	(4dd\	ci-	.
.	8f/J 8a- 8b-	.	.	.	.
(4B-X\	8cn/L 8a- 8b-	.	4ccn\)	.	.
.	8c/J 8a- 8b-	.	.	.	.
4BB-X/	8d/L 8a- 8b-	.	4a-X/	-cho	.
.	8d/J 8a- 8b-	.	.	.	.
=22	=22	=22	=22	=22	=22
2E-X\)	8e-X/L 8g 8b-X	.	4g/	ma-	.
.	8e-/ 8g 8b-	.	.	.	.
.	8e-/ 8g 8b-	.	4b-X\	-rzy	.
.	8e-/J 8g 8b-	.	.	.	.
(>4E-\	8d/L 8g 8b-	.	4dd\	i	.
.	8d/J 8g 8b-	.	.	.	.
=23	=23	=23	=23	=23	=23
[<2.EE-X/)	8cn/L 8e-X 8a-X	.	2ccn\	ci-	.
.	8c/ 8e- 8a-	.	.	.	.
.	8c/ 8e- 8a-	.	.	.	.
.	8c/J 8e- 8a-	.	.	.	.
.	8B-X/L 8d 8a-	.	4a-X\	-cho	.
.	8B-/J 8d 8a-	.	.	.	.
=24	=24	=24	=24	=24	=24
4EE-/]	8B-X/L 8d 8a-X	.	4ccn\	ma-	.
.	8B-/J 8d 8a-	.	.	.	.
!LO:SIC:v:s=8EE-\L	!	!	!	!	!
8EEny\L	8B-/L 8e-X 8g	.	[2b-X\	-rzy.	.
(8cn\	8e-/ 8g	.	.	.	.
8B-X\	8e-/ 8g	.	.	.	.
8E-X\J	8e-/J 8g	.	.	.	.
=25	=25	=25	=25	=25	=25
*	*^	*	*	*	*
*	*	*xywh-#3:402,1231,5449,1075	*	*	*	*
4G\)	8e-X/ 8g	2ryy	.	8b-\]	.	.
.	4e-/ 4g	.	.	8r	.	.
8G\	.	.	.	4r	.	.
8r	4e-/ 4g	.	.	.	.	.
4r	.	8ryy	.	4r	.	.
!	!	!	!LO:HP:b	!	!	!
.	8g/	[<8e-\	<	.	.	.
=26	=26	=26	=26	=26	=26	=26
2.ryy	8g/ 8a-X	8d\ 8e-]	.	2.r	.	.
.	4g/ 4a-	4d\ 4e-X	.	.	.	.
.	4g/ 4a-	4d\ 4e-	.	.	.	.
.	(>(>8g/ 8a-	(<(<8d\ 8e-	[	.	.	.
!!LO:LB:g=original
=27	=27	=27	=27	=27	=27	=27
*xywh-#3:409,2962,5503,1075	*xywh-#3:409,2962,5503,1075	*xywh-#3:409,2962,5503,1075	*	*xywh-#3:487,2298,5420,721	*	*
!	!	!	!LO:HP:b:t=poco a poco cresc. e con gran espressione	!	!	!LO:HP:a:t=poco a poco cresc. e con gran espressione
8r	8g/)) 8an	8c#X\)) 8en	<	4a\	Ma-	<
4c#X\ 4e	8r	8ryy	.	.	.	.
.	4r	2ryy	.	4.a\	-rzy	.
4c#\ 4e	.	.	.	.	.	.
.	(>4gg\	.	.	.	.	.
(<8c#\ [>8e	.	.	.	8a/	ze	.
*	*v	*v	*	*	*	*
=28	=28	=28	=28	=28	=28
8cn\) 8e]	4ff#\	.	4a#X/	swo-	.
4c\ 4e	.	.	.	.	.
.	4ee\	.	4.a#/	-jem	.
4c\ 4e	.	.	.	.	.
.	4a#X/	.	.	.	.
(<8c\ [>8e	.	.	8a#/	ko-	.
=29	=29	=29	=29	=29	=29
*	*^	*	*	*	*
*	*	*xywh-#3:409,2962,5503,1075	*	*	*	*
8B\) 8e]	2b/)	8b\	.	4b\	-cha-	.
4B\ 4e	.	4g\	.	.	.	.
.	.	.	.	4b\	-niem	.
4B\ 4e	.	4g\	.	.	.	.
.	(>4gg/	.	.	8r	.	.
[8B\ [8e	.	8g\	.	8b\	o-	.
=30	=30	=30	=30	=30	=30	=30
*	*	*	*	*^	*	*
*	*	*	*	*	*xywh-#3:487,2298,5420,721	*	*
8B\] 8e]	8ff#/	8ff#\	.	(4ff#/	2b\	-ca-	.
4B\ 4e	4ee/	4g\	.	.	.	.	.
.	.	.	.	4ee/)	.	.	.
4B-X\ 4d 4e	(>4dd/	4g\	.	.	.	.	.
.	.	.	.	4dd\	4ryy	-li	.
[<8B-\ [<8d [>8e	8ryy	[<8g\	.	.	.	.	.
*	*	*	*	*v	*v	*	*
=31	=31	=31	=31	=31	=31	=31
!	!LO:TX:t=P:problem=problem z zakodowaniem końca łuku i końca ligatury na jednym dźwięku 8dd/])	!	!	!	!	!
8B-\] 8d] 8e]	8dd/))	8g\]	.	4dd\	Ko-	.
4B-X\ 4d 4g	8r	8ryy	.	.	.	.
.	(>4e/	2ryy	.	4.e/	-goś	.
4A\ 4c# 4g	.	.	.	.	.	.
.	(>4cc#\	.	.	.	.	.
[8A\ [8c# [8g	.	.	.	8cc#\	co	.
*	*v	*v	*	*	*	*
=32	=32	=32	=32	=32	=32
8A\] 8c#] 8g]	4b\))	.	4b\	gnie	.
4G\ 4A 4e	.	.	.	.	.
.	(>4c#X/	.	[2a\	się	.
4G\ 4A 4e	.	.	.	.	.
.	[4a\	.	.	.	.
[<8G\ [<8A [>8e	.	.	.	.	.
!!LO:LB:g=original
=33	=33	=33	=33	=33	=33
*xywh-#3:436,4612,5382,1169	*xywh-#3:436,4612,5382,1169	*	*xywh-#3:555,4123,5296,608	*	*
8G\] 8A] 8e]	4a\])	.	4a\]	.	.
4F#\ 4A 4e	.	.	.	.	.
.	(<4cn/	.	4r	.	.
4F#\ 4A 4e	.	.	.	.	.
.	[>4a/)	.	4r	.	.
[<8F#\ [>8A [>8e	.	.	.	.	.
=34	=34	=34	=34	=34	=34
*	*^	*	*	*	*
*	*	*xywh-#3:436,4612,5382,1169	*	*	*	*
8F#\] 8A] 8e]	2a/]	8ryy	.	4r	.	.
8ryy	.	4cn\ 4e	.	.	.	.
4BB/	.	.	.	4a/	Ach	.
.	.	4c\ 4e	.	.	.	.
4A\	8g/L	.	.	8g/	co-	.
.	8f#/J	[<8c\ [<8d#X	.	8f#/	-raz	.
=35	=35	=35	=35	=35	=35	=35
4G\	(>4f#/	8c\L] 8d#]	.	4ccn\	da-	.
.	.	(8cn\J 8d#X	.	.	.	.
8G\	4e/)	8B\)	.	4b\	-lej	.
8r	.	4B\	.	.	.	.
4r	(>4b/	.	.	4r	.	.
.	.	[<8B\ [<8e	.	.	.	.
=36	=36	=36	=36	=36	=36	=36
4r	2g/)	8B\] 8e]	.	4.g/	i-	.
.	.	4B\ 4dn	.	.	.	.
(>4AA/	.	.	.	.	.	.
.	.	4B\ 4d	.	8g/	-dzie	.
4G\	(>8f#/L	.	.	8f#/	co-	.
.	8e/J	8B-X\ 8c#	.	8e/	-raz	.
=37	=37	=37	=37	=37	=37	=37
[>4F#\)	[>4a/)	8a\	.	4a\	da-	.
.	.	4A\ 4d	.	.	.	.
8F#\]	8a/L]	.	.	4d/	-lej,	.
!	!	!	!LO:HP:b	!	!	!
8r	(>8dd/	8r	>	.	.	.
4r	8a/	4r	.	4r	.	.
.	8f#/J	.	.	.	.	.
*	*v	*v	*	*	*	*
=38	=38	=38	=38	=38	=38
4r	8d/L	.	2.r	.	.
.	8cn/J	.	.	.	.
4r	4B-X/)	]	.	.	.
4DD/ 4BB-X 4D	4Fn/ 4B- 4fn	.	.	.	.
!!LO:LB:g=original
=39	=39	=39	=39	=39	=39
*xywh-#3:186,6458,5814,1365	*xywh-#3:186,6458,5814,1365	*	*xywh-#3:526,5706,5319,760	*	*
[<2.DD/ [<2.BB-X [>2.D	[<2.Fn/ [<2.B-X [>2.fn	.	4r	.	.
!	!	!	!	!	!LO:DY:a
.	.	.	[2b-X\	Gi-	p
=40	=40	=40	=40	=40	=40
2DD/] 2BB-] 2D]	2F/] 2B-] 2f]	.	4b-\]	.	.
.	.	.	4fn/	-nie	.
4r	(>4b-X\	.	4r	.	.
=41	=41	=41	=41	=41	=41
*^	*^	*	*	*	*
*xywh-#3:186,6458,5814,1365	*xywh-#3:186,6458,5814,1365	*xywh-#3:186,6458,5814,1365	*xywh-#3:186,6458,5814,1365	*	*	*	*
8r	4ryy	2a/)	<[2a\	.	[<2.a\	gi-	.
8AAA/L	.	.	.	.	.	.	.
!LO:N:vis=2	!	!	!	!	!	!	!
8AA/	[2AA\	.	.	.	.	.	.
8E/J	.	.	.	.	.	.	.
[4G/	.	4a/	8a\L]	.	.	.	.
.	.	.	(>[<8B\J	.	.	.	.
=42	=42	=42	=42	=42	=42	=42	=42
4G/]	4AA\]	2a/)	4B\] 4d	.	4a/]	.	.
!	!	!	!	!LO:HP:b	!	!	!
4G\	4AA\	.	4B\ 4d	<	4Bn/	-nie	.
!	!	!	!	!	!	!	!LO:HP:a
4G\	4AA\	4g/	4B\ 4d	.	4g/	w_bez-	<[
*v	*v	*	*	*	*	*	*
=43	=43	=43	=43	=43	=43	=43
4r	[2.f#/	8r	[ <	[2.f#/	-kre-	.
.	.	8G#X\L	.	.	.	.
4r	.	8B\	.	.	.	.
.	.	8d\	.	.	.	.
4AAA/ 4AA	.	8c#\	.	.	.	.
.	.	8Gn\J	.	.	.	.
=44	=44	=44	=44	=44	=44	=44
[2.DD/ [2.AA	2.f#/]	8F#\L	.	4f#/]	.	.
.	.	8A\J	.	.	.	.
.	.	8d\	.	[2d/	-sie.	.
.	.	4F#\ 4A	.	.	.	.
.	.	[<8F#\ [<8A	.	.	.	.
=45	=45	=45	=45	=45	=45	=45
*^	*	*	*	*	*	*
*	*xywh-#3:186,6458,5814,1365	*	*	*	*	*	*
4DD/_ 4AA_	4.ryy	2.f#/	8F#\L_< 8A_<	.	4d/]	.	.
.	.	.	8F#\J_< 8A_<	.	.	.	.
(>8DD/] 8AA]	.	.	2F#\_< 2A_<	pp	4r	.	.
4DD/	[<4.DD\	.	.	.	.	.	.
.	.	.	.	.	4r	.	.
8AA/	.	.	.	.	.	.	.
*v	*v	*	*	*	*	*	*
=46	=46	=46	=46	=46	=46	=46
2.DD/]) 2.AA 2.D	2.f#/	2.F#\] 2.A]	.	2.r	.	.
*	*v	*v	*	*	*	*
==	==	==	==	==	==
*-	*-	*-	*-	*-	*-
!!!system-decoration: s1{(s2,s3)}
!!!RDF**kern: < = below
!!!RDF**kern: > = above
!!!ENC: Andrzej Gręziak
!!!END: 2022-02-17
!!!ENC: Marta Chmielewska
!!!END: 2022-02-17
!!!ENC-iiif: Antoni Szymański
!!!END-iiif: 2022-09-04
!!!YEC: Copyright 2022 Narodowy Instytut Fryderyka Chopina (https://polishscores.org)
!!!YEM: License CC-BY-4.0 (https://creativecommons.org/licenses/by/4.0)
!!!IIIF: https://polona.pl/iiif/item/NjU5MjI0Nzc/manifest.json
